!!!OTL: Veraenderung.
!!!OTL-incipit:IST NICHT LANG DASS ES GEREGNET HAT
!!!COM: Volksweise
!!!ARE: Europa, Mitteleuropa, Deutschland
!!!SCT: F0192
!!!TXL: @@GSW
!!!YEM: Copyright 1995, estate of Helmut Schaffrath.
**kern	**text	**text
*ICvox	*	*
*M2/4	*	*
*k[b-]	*	*
*F:	*	*
!LO:TX:a:t=Mäßig, und doch munter.	!	!
!LO:TX:a:t=P:only the highest voice encoded:problem	!	!
{8c	1._Jſt	2._Jetʒt
=1	=1	=1
8f	nicht	iſt
8g	lang',	er
8a	daß_es	gan-
8b-/	ge-	-gen
=2	=2	=2
8cc/	-reg-	wan-
16cc/L	-net	-de-
16bnJ	.	.
8cc/}	hat,	-ren,
{8ff/	die	ich
=3	=3	=3
8cc/	Läub-	wünſch'
8a/	-li	ihm
8b-/	trö-	Löcher
8g/	-pfeln	in_d'
=4	=4	=4
4a	noch.	Schuh.
8r}	.	.
{8c	Jch	Jetʒt
=5	=5	=5
8f	hab'	hab'
8g	ein	ich
8a	Mal	wieder
8b-/	ein	e'n
=6	=6	=6
8cc/	Schä-	an-
16cc/L	-tʒel	-de-
16bnJ	.	.
8cc/}	g'hat,	-ren,
{8ff/	ich	Gott
=7	=7	=7
8cc/	wollt',	geb'
8a	ich	mir
8b-X/	hätt'	Glück
8g	es	da-
=8	=8	=8
4f	noch.	-ʒu.
8r}	.	.
==	==	==
!!!AGN: Abschieds - Lied
!!!ONB: ESAC (Essen Associative Code) Database: FINK
!!!AMT: simple duple
!!!AIN: vox
!!!EED: Helmut Schaffrath
!!!EEV: 1.0
!!!GTL: Volkslieder
!!Text: Volkslied
!!!source: Musikalischer Hausschatz der Deutschen. Eine Sammlung von über 1000 Liedern und Gesängen mit Singstimmen und Klavierbegleitung. Leipzig, Litterarisches Verlags-Haus.
!!!page: 114
!!!URL-scan: https://www.digitale-sammlungen.de/en/view/bsb11144622?page=122,123
!!!ENC: Anna Maria Matuszewska
!!!EEV: 2024/07/26
*-	*-	*-
